devices/24/bluetooth.svg

<?xml version="1.0" encoding="UTF-8" standalone="no"?>
<svg
   xmlns:dc="http://purl.org/dc/elements/1.1/"
   xmlns:cc="http://creativecommons.org/ns#"
   xmlns:rdf="http://www.w3.org/1999/02/22-rdf-syntax-ns#"
   xmlns:svg="http://www.w3.org/2000/svg"
   xmlns="http://www.w3.org/2000/svg"
   xmlns:xlink="http://www.w3.org/1999/xlink"
   id="svg4100"
   height="24"
   width="24"
   version="1.1">
  <defs
     id="defs4102">
    <linearGradient
       gradientTransform="translate(-5.627119,-7.2796607)"
       gradientUnits="userSpaceOnUse"
       xlink:href="#linearGradient3707-319-631-407-324-3-8-4-6"
       id="linearGradient3087-7"
       y2="0.86377394"
       x2="11.801105"
       y1="19.013813"
       x1="11.801105" />
    <linearGradient
       id="linearGradient3707-319-631-407-324-3-8-4-6">
      <stop
         offset="0"
         style="stop-color:#185f9a;stop-opacity:1"
         id="stop3760-7-3-9-0" />
      <stop
         offset="1"
         style="stop-color:#599ec9;stop-opacity:1"
         id="stop3762-8-4-5-1" />
    </linearGradient>
    <linearGradient
       gradientTransform="matrix(0.5135135,0,0,0.5135135,-50.463251,-8.3009452)"
       gradientUnits="userSpaceOnUse"
       xlink:href="#linearGradient3195"
       id="linearGradient3091-8"
       y2="42.566788"
       x2="118.13929"
       y1="4.4552212"
       x1="118.13929" />
    <linearGradient
       id="linearGradient3195">
      <stop
         offset="0"
         style="stop-color:#ffffff;stop-opacity:1"
         id="stop3197" />
      <stop
         offset="0.35187331"
         style="stop-color:#ffffff;stop-opacity:0.23529412"
         id="stop3199" />
      <stop
         offset="0.83456558"
         style="stop-color:#ffffff;stop-opacity:0.15686275"
         id="stop3201" />
      <stop
         offset="1"
         style="stop-color:#ffffff;stop-opacity:0.39215687"
         id="stop3203" />
    </linearGradient>
    <radialGradient
       gradientTransform="matrix(0,1.1468756,-1.2132576,-3.1216191e-8,22.251804,-14.943089)"
       gradientUnits="userSpaceOnUse"
       xlink:href="#linearGradient2867-449-88-871-390-598-476-591-434-148-57-177-3-8-0"
       id="radialGradient3094-5"
       fy="8.4497671"
       fx="6.0693989"
       r="19.99999"
       cy="8.4497671"
       cx="6.0693989" />
    <linearGradient
       id="linearGradient2867-449-88-871-390-598-476-591-434-148-57-177-3-8-0">
      <stop
         offset="0"
         style="stop-color:#90dbec;stop-opacity:1"
         id="stop3750-8-9-9" />
      <stop
         offset="0.26238"
         style="stop-color:#42baea;stop-opacity:1"
         id="stop3752-3-2-6" />
      <stop
         offset="0.704952"
         style="stop-color:#3689e6;stop-opacity:1"
         id="stop3754-7-2-3" />
      <stop
         offset="1"
         style="stop-color:#2b63a0;stop-opacity:1"
         id="stop3756-9-3-8" />
    </linearGradient>
    <linearGradient
       gradientTransform="matrix(0.53851149,0,0,0.53851149,-0.924275,-8.9242757)"
       gradientUnits="userSpaceOnUse"
       xlink:href="#linearGradient3707-319-631-407-324-3-8-6"
       id="linearGradient3096-5"
       y2="3.8990016"
       x2="24"
       y1="44"
       x1="24" />
    <linearGradient
       id="linearGradient3707-319-631-407-324-3-8-6">
      <stop
         offset="0"
         style="stop-color:#185f9a;stop-opacity:1"
         id="stop3760-7-3-1" />
      <stop
         offset="1"
         style="stop-color:#599ec9;stop-opacity:1"
         id="stop3762-8-4-1" />
    </linearGradient>
    <linearGradient
       id="linearGradient8838">
      <stop
         offset="0"
         style="stop-color:#000000;stop-opacity:1"
         id="stop8840" />
      <stop
         offset="1"
         style="stop-color:#000000;stop-opacity:0"
         id="stop8842" />
    </linearGradient>
    <radialGradient
       gradientTransform="matrix(0.75294112,0,0,0.18823528,-35.15294,13.462743)"
       gradientUnits="userSpaceOnUse"
       xlink:href="#linearGradient8838"
       id="radialGradient4098"
       fy="8.1666756"
       fx="62.625004"
       r="10.625"
       cy="8.1666756"
       cx="62.625004" />
  </defs>
  <metadata
     id="metadata4105">
    <rdf:RDF>
      <cc:Work
         rdf:about="">
        <dc:format>image/svg+xml</dc:format>
        <dc:type
           rdf:resource="http://purl.org/dc/dcmitype/StillImage" />
        <dc:title />
      </cc:Work>
    </rdf:RDF>
  </metadata>
  <g
     id="layer1"
     transform="translate(0,8)">
    <path
       style="opacity:0.3;fill:url(#radialGradient4098);fill-opacity:1;fill-rule:evenodd;stroke:none;stroke-width:0.99999988;marker:none;visibility:visible;display:inline;overflow:visible"
       id="path8836"
       d="m 20,14 c 0,1.656854 -1.450048,1.915493 -8.077465,1.915493 C 5.2951182,15.915493 4,15.656854 4,14 c 0,-1.656854 1.372583,-2 8,-2 6.627417,0 8,0.343146 8,2 l 0,0 z" />
    <rect
       style="color:#000000;fill:url(#radialGradient3094-5);fill-opacity:1;fill-rule:nonzero;stroke:url(#linearGradient3096-5);stroke-width:1;stroke-linecap:round;stroke-linejoin:round;stroke-miterlimit:4;stroke-opacity:1;stroke-dasharray:none;stroke-dashoffset:0;marker:none;visibility:visible;display:inline;overflow:visible;enable-background:accumulate"
       id="rect3363"
       y="-6.4845419"
       x="4.5154581"
       ry="7.5"
       rx="7.5"
       height="20.969084"
       width="14.969084" />
    <rect
       style="opacity:0.5;color:#000000;fill:none;stroke:url(#linearGradient3091-8);stroke-width:0.99999988;stroke-linecap:round;stroke-linejoin:round;stroke-miterlimit:4;stroke-opacity:1;stroke-dasharray:none;stroke-dashoffset:0;marker:none;visibility:visible;display:inline;overflow:visible;enable-background:accumulate"
       id="rect3365"
       y="-5.4835191"
       x="5.5164809"
       ry="6.5"
       rx="6.5"
       height="18.967039"
       width="12.967038" />
    <path
       style="color:#000000;fill:url(#linearGradient3087-7);fill-opacity:1;fill-rule:nonzero;stroke:none;stroke-width:1;marker:none;visibility:visible;display:inline;overflow:visible;enable-background:accumulate"
       id="path3205-0"
       d="m 11,-3.7497501 0,5.4375 -2.53125,-1.875 L 7.8125,0.5314999 11,2.9377499 11,3.594 7.84375,6.4065 8.53125,7.18775 11,5.00025 11,9.719 15.53125,5.12525 12.9375,3.1565 15.5,0.8439999 11,-3.7497501 z m 1,2.4375 2.0625,2.09375 -1.9375,1.78125 -0.125,-0.09375 0,-3.78125 z M 12.1875,3.844 14.03125,5.25025 12,7.31275 12,4.0315 12.1875,3.844 z" />
    <path
       style="fill:#ffffff;fill-opacity:1;stroke:none"
       id="path3205"
       d="m 11,-2.7500001 0,5.4375 -2.53125,-1.875 L 7.8125,1.5312499 11,3.9375 11,4.59375 7.84375,7.40625 8.53125,8.1875 11,6 11,10.71875 15.53125,6.125 12.9375,4.15625 15.5,1.8437499 11,-2.7500001 z m 1,2.4375 2.0625,2.09375 L 12.125,3.5625 12,3.46875 12,-0.3125001 z M 12.1875,4.84375 14.03125,6.25 12,8.3125 12,5.03125 12.1875,4.84375 z" />
  </g>
</svg>

<svg xmlns="http://www.w3.org/2000/svg" xmlns:xlink="http://www.w3.org/1999/xlink" viewBox="0 0 24 24"><defs><linearGradient gradientTransform="translate(-5.627 -7.28)" gradientUnits="userSpaceOnUse" xlink:href="#a" id="j" y2=".864" x2="11.801" y1="19.014" x1="11.801"/><linearGradient id="a"><stop offset="0" stop-color="#185f9a"/><stop offset="1" stop-color="#599ec9"/></linearGradient><linearGradient gradientTransform="translate(-50.463 -8.3) scale(.5135)" gradientUnits="userSpaceOnUse" xlink:href="#b" id="i" y2="42.567" x2="118.139" y1="4.455" x1="118.139"/><linearGradient id="b"><stop offset="0" stop-color="#fff"/><stop offset=".352" stop-color="#fff" stop-opacity=".235"/><stop offset=".835" stop-color="#fff" stop-opacity=".157"/><stop offset="1" stop-color="#fff" stop-opacity=".392"/></linearGradient><radialGradient gradientTransform="matrix(0 1.14688 -1.21326 0 22.252 -14.943)" gradientUnits="userSpaceOnUse" xlink:href="#c" id="g" fy="8.45" fx="6.069" r="20" cy="8.45" cx="6.069"/><linearGradient id="c"><stop offset="0" stop-color="#90dbec"/><stop offset=".262" stop-color="#42baea"/><stop offset=".705" stop-color="#3689e6"/><stop offset="1" stop-color="#2b63a0"/></linearGradient><linearGradient gradientTransform="translate(-.924 -8.924) scale(.5385)" gradientUnits="userSpaceOnUse" xlink:href="#d" id="h" y2="3.899" x2="24" y1="44" x1="24"/><linearGradient id="d"><stop offset="0" stop-color="#185f9a"/><stop offset="1" stop-color="#599ec9"/></linearGradient><linearGradient id="e"><stop offset="0"/><stop offset="1" stop-opacity="0"/></linearGradient><radialGradient gradientTransform="matrix(.75294 0 0 .18824 -35.153 13.463)" gradientUnits="userSpaceOnUse" xlink:href="#e" id="f" fy="8.167" fx="62.625" r="10.625" cy="8.167" cx="62.625"/></defs><g transform="translate(0 8)"><path d="M20 14c0 1.657-1.45 1.915-8.077 1.915C5.295 15.915 4 15.657 4 14s1.373-2 8-2 8 .343 8 2z" opacity=".3" fill="url(#f)" fill-rule="evenodd" overflow="visible"/><rect y="-6.485" x="4.515" ry="7.5" rx="7.5" height="20.969" width="14.969" color="#000" fill="url(#g)" stroke="url(#h)" stroke-linecap="round" stroke-linejoin="round" overflow="visible"/><rect y="-5.484" x="5.516" ry="6.5" rx="6.5" height="18.967" width="12.967" opacity=".5" color="#000" fill="none" stroke="url(#i)" stroke-linecap="round" stroke-linejoin="round" overflow="visible"/><path d="M11-3.75v5.438L8.47-.187 7.81.53 11 2.94v.656l-3.156 2.81.687.78L11 5v4.72l4.53-4.595-2.592-1.97L15.5.845 11-3.75zm1 2.438L14.063.78l-1.938 1.783L12 2.47v-3.782zm.188 5.156L14.03 5.25 12 7.313v-3.28l.188-.19z" color="#000" fill="url(#j)" overflow="visible"/><path d="M11-2.75v5.437L8.47.812l-.658.72L11 3.936v.657L7.844 7.406l.687.782L11 6v4.72l4.53-4.595-2.592-1.97 2.562-2.31L11-2.75zm1 2.437l2.063 2.094-1.938 1.784L12 3.47V-.314zm.188 5.157L14.03 6.25 12 8.313V5.03l.188-.186z" fill="#fff"/></g></svg>
